X:14652
T:Rumba d'Ibias (XA 16)
R:Rumba
C:Tradicional
S:Msica Tradicional Asturiana, (C) Tello & Tito. Asturies, 2001.
S:http://pagina.de/MusTradAst <telloytito@asturies.org>
O:Ibias
A:Asturies
Z:Mtodu de Xuacu Amieva 16
M:2/4
L:1/8
Q:1/4=100
K:C
|: C/C/C/D/ E/E/E/E/|.FF E>C |.EE D>B,|.FF E>~G|
|C/C/C/D/ E/E/E/E/|.FF E>C |.EE D>B,|.DD C2 :|
|: cB ~AF|.AA G>E|.GG F>D|E/D/E/F/ G2|
|cB ~AF|.AA G>E|.GG FD/E/|G/F/E/D/ C2 :|
